X: 1
T: Bould Thady Quill, The
M: 6/8
L: 1/8
R: jig
K: Gmaj
D|:GBA AGE|GAG GBd|ege dBG|BAG A2 D|
GBA AGE|GAG GBd|ege dBG|1 AGF G2 D:|2 AGF G2 B||
|:def g3|age edB|g2 g edB|BAG A2 D|
GBA AGE|GAG GBd|ege dBG|1 AGF G2 B:|2 AGF G2||
